PortfolioPage/assets/software/ilustrator.svg

<svg xmlns="http://www.w3.org/2000/svg" width="512" height="512" fill="none" viewBox="0 0 512 512">
  <g clip-path="url(#a)">
    <path fill="#300" d="M90.6667 0H421.333C471.467 0 512 41.5727 512 92.9915V419.009C512 470.427 471.467 512 421.333 512H90.6667C40.5333 512 0 470.427 0 419.009V92.9915C0 41.5727 40.5333 0 90.6667 0Z"/>
    <path fill="#FF9A00" d="M247.467 306.325h-79.36l-16.214 51.419c-.426 1.969-2.133 3.282-4.053 3.063h-40.107c-2.346 0-2.986-1.313-2.346-3.939l68.693-202.83c.64-2.188 1.28-4.595 2.133-7.221.854-4.595 1.28-9.408 1.28-14.222-.213-1.094.64-2.188 1.707-2.407h55.253c1.707 0 2.56.656 2.774 1.75l77.866 225.368c.64 2.407 0 3.501-2.133 3.501h-44.587c-1.493.219-2.986-.875-3.413-2.407l-17.493-52.075Zm-66.987-44.417h54.187c-1.28-4.595-2.987-10.065-4.907-15.754-1.92-5.908-3.84-12.253-5.76-18.817-2.133-6.783-4.053-13.347-6.187-20.13-2.133-6.783-4.053-13.128-5.76-19.474-1.706-6.126-3.2-11.815-4.693-17.066h-.427c-1.92 9.408-4.266 18.817-7.253 28.225-3.2 10.503-6.4 21.443-9.813 32.383-2.987 11.159-6.187 21.443-9.387 30.633Zm182.187-93.429c-7.04.218-13.867-2.626-18.987-7.659-4.907-5.47-7.467-12.69-7.253-20.129-.214-7.44 2.56-14.441 7.68-19.474 5.12-5.032 11.946-7.658 18.986-7.658 8.32 0 14.72 2.626 19.414 7.658 4.693 5.251 7.253 12.253 7.04 19.474.213 7.439-2.347 14.659-7.467 20.129-4.907 5.252-12.16 8.096-19.413 7.659ZM338.773 358.4V189.921c0-2.188.854-3.063 2.774-3.063h42.24c1.92 0 2.773 1.094 2.773 3.063V358.4c0 2.407-.853 3.501-2.773 3.501h-41.814c-2.133 0-3.2-1.313-3.2-3.501Z"/>
  </g>
  <defs>
    <clipPath id="a">
      <path fill="#fff" d="M0 0h512v512H0z"/>
    </clipPath>
  </defs>
</svg>

<svg width="512" height="512" viewBox="0 0 512 512" fill="none" xmlns="http://www.w3.org/2000/svg">
<g clip-path="url(#clip0_422_51)">
<path d="M90.6667 0H421.333C471.467 0 512 41.5727 512 92.9915V419.009C512 470.427 471.467 512 421.333 512H90.6667C40.5333 512 0 470.427 0 419.009V92.9915C0 41.5727 40.5333 0 90.6667 0Z" fill="#330000"/>
<path d="M247.467 306.325H168.107L151.893 357.744C151.467 359.713 149.76 361.026 147.84 360.807H107.733C105.387 360.807 104.747 359.494 105.387 356.868L174.08 154.038C174.72 151.85 175.36 149.443 176.213 146.817C177.067 142.222 177.493 137.409 177.493 132.595C177.28 131.501 178.133 130.407 179.2 130.188H234.453C236.16 130.188 237.013 130.844 237.227 131.938L315.093 357.306C315.733 359.713 315.093 360.807 312.96 360.807H268.373C266.88 361.026 265.387 359.932 264.96 358.4L247.467 306.325ZM180.48 261.908H234.667C233.387 257.313 231.68 251.843 229.76 246.154C227.84 240.246 225.92 233.901 224 227.337C221.867 220.554 219.947 213.99 217.813 207.207C215.68 200.424 213.76 194.079 212.053 187.733C210.347 181.607 208.853 175.918 207.36 170.667H206.933C205.013 180.075 202.667 189.484 199.68 198.892C196.48 209.395 193.28 220.335 189.867 231.275C186.88 242.434 183.68 252.718 180.48 261.908ZM362.667 168.479C355.627 168.697 348.8 165.853 343.68 160.82C338.773 155.35 336.213 148.13 336.427 140.691C336.213 133.251 338.987 126.25 344.107 121.217C349.227 116.185 356.053 113.559 363.093 113.559C371.413 113.559 377.813 116.185 382.507 121.217C387.2 126.468 389.76 133.47 389.547 140.691C389.76 148.13 387.2 155.35 382.08 160.82C377.173 166.072 369.92 168.916 362.667 168.479ZM338.773 358.4V189.921C338.773 187.733 339.627 186.858 341.547 186.858H383.787C385.707 186.858 386.56 187.952 386.56 189.921V358.4C386.56 360.807 385.707 361.901 383.787 361.901H341.973C339.84 361.901 338.773 360.588 338.773 358.4Z" fill="#FF9A00"/>
</g>
<defs>
<clipPath id="clip0_422_51">
<rect width="512" height="512" fill="white"/>
</clipPath>
</defs>
</svg>
